react/assets/icons/user.svg

<svg width="24" height="24" viewBox="0 0 24 24" fill="none" xmlns="http://www.w3.org/2000/svg">
<path fill-rule="evenodd" clip-rule="evenodd" d="M11.75 3C6.91751 3 3 6.91751 3 11.75C3 16.5825 6.91751 20.5 11.75 20.5C16.5825 20.5 20.5 16.5825 20.5 11.75C20.5 6.91751 16.5825 3 11.75 3ZM4.5 11.75C4.5 7.74594 7.74594 4.5 11.75 4.5C15.7541 4.5 19 7.74594 19 11.75C19 13.7605 18.1817 15.5798 16.8599 16.8931C16.1161 16.565 15.5022 16.2654 15.0142 15.9943C14.6025 15.7656 14.3011 15.5683 14.0919 15.4042L14.0936 15.4025C14.1849 15.3045 14.3035 15.1773 14.4262 15.0301C15.0339 14.3008 15.7 13.1324 15.7 10.95C15.7 9.53649 15.4206 8.3376 14.7357 7.48143C14.0252 6.5933 12.9822 6.19995 11.75 6.19995C10.5178 6.19995 9.47485 6.5933 8.76435 7.48143C8.07942 8.3376 7.8 9.53649 7.8 10.95C7.8 13.1324 8.46607 14.3008 9.07384 15.0301C9.1965 15.1773 9.31508 15.3045 9.40644 15.4025L9.40808 15.4042C9.19894 15.5683 8.89753 15.7656 8.48577 15.9943C7.99781 16.2654 7.38395 16.565 6.64006 16.8931C5.31833 15.5798 4.5 13.7605 4.5 11.75ZM7.96848 17.9369C9.06945 18.6113 10.3643 19 11.75 19C13.1357 19 14.4306 18.6113 15.5315 17.9369C15.0637 17.7173 14.648 17.5068 14.2858 17.3056C13.666 16.9612 13.1604 16.6211 12.8197 16.2803C12.6635 16.1241 12.4864 15.8918 12.4453 15.5745C12.4026 15.2448 12.5264 14.9831 12.6316 14.8194C12.7299 14.6665 12.8613 14.525 12.9551 14.424L12.9989 14.3769C13.091 14.278 13.1798 14.1827 13.2738 14.0698C13.6661 13.5991 14.2 12.7675 14.2 10.95C14.2 9.69675 13.9461 8.89564 13.5644 8.41847C13.2082 7.97326 12.6511 7.69995 11.75 7.69995C10.8489 7.69995 10.2918 7.97326 9.93565 8.41847C9.55392 8.89564 9.3 9.69675 9.3 10.95C9.3 12.7675 9.83393 13.5991 10.2262 14.0698C10.3202 14.1827 10.409 14.278 10.5011 14.3769L10.5449 14.424C10.6387 14.525 10.7701 14.6665 10.8684 14.8194C10.9736 14.9831 11.0974 15.2448 11.0547 15.5745C11.0136 15.8918 10.8366 16.1241 10.6803 16.2803C10.3396 16.6211 9.83401 16.9612 9.21423 17.3056C8.85198 17.5068 8.43631 17.7173 7.96848 17.9369ZM13.8671 15.2053L13.8696 15.2083C13.8678 15.2063 13.867 15.2053 13.8671 15.2053ZM9.63293 15.2053C9.63313 15.205 9.63295 15.2053 9.63293 15.2053L9.63044 15.2083C9.63159 15.207 9.63257 15.2058 9.63293 15.2053Z" fill="#C3C9CF"/>
</svg>

<svg width="24" height="24" viewBox="0 0 24 24" fill="none" xmlns="http://www.w3.org/2000/svg"><path fill-rule="evenodd" clip-rule="evenodd" d="M11.75 3a8.75 8.75 0 1 0 0 17.5 8.75 8.75 0 0 0 0-17.5ZM4.5 11.75a7.25 7.25 0 1 1 12.36 5.143 22.937 22.937 0 0 1-1.846-.899 7.169 7.169 0 0 1-.922-.59l.002-.002c.09-.097.21-.225.332-.372.608-.73 1.274-1.898 1.274-4.08 0-1.414-.28-2.612-.964-3.469-.71-.888-1.754-1.281-2.986-1.281-1.232 0-2.275.393-2.986 1.281-.685.857-.964 2.055-.964 3.469 0 2.182.666 3.35 1.274 4.08.123.147.241.275.332.373l.002.001a7.16 7.16 0 0 1-.922.59c-.488.271-1.102.571-1.846.9A7.228 7.228 0 0 1 4.5 11.75Zm3.468 6.187A7.216 7.216 0 0 0 11.75 19c1.386 0 2.68-.389 3.781-1.063-.467-.22-.883-.43-1.245-.631-.62-.345-1.126-.685-1.466-1.026-.156-.156-.334-.388-.375-.706-.042-.33.081-.59.187-.755.098-.153.23-.294.323-.395l.044-.047c.092-.099.18-.194.275-.307.392-.47.926-1.303.926-3.12 0-1.253-.254-2.054-.636-2.532-.356-.445-.913-.718-1.814-.718s-1.458.273-1.814.718c-.382.478-.636 1.279-.636 2.532 0 1.818.534 2.65.926 3.12.094.113.183.208.275.307l.044.047c.094.101.225.242.323.395.106.164.23.426.187.755-.041.318-.218.55-.375.706-.34.341-.846.681-1.466 1.026-.362.2-.778.411-1.246.63Zm5.9-2.732.002.003a.02.02 0 0 1-.003-.003Zm-4.235 0-.003.003a.05.05 0 0 0 .003-.003Z" fill="#C3C9CF"/></svg>
